storage/app/icons/phosphoricons/light/stool-light.svg

<svg xmlns="http://www.w3.org/2000/svg" fill="currentColor" viewBox="0 0 256 256"><path d="M198 64V40a14 14 0 0 0-14-14H72a14 14 0 0 0-14 14v24a14 14 0 0 0 14 14h9L58.07 223.06a6 6 0 0 0 5 6.87 6 6 0 0 0 6.86-5L78 174h100l8 50.93a6 6 0 1 0 11.86-1.87L175 78h9a14 14 0 0 0 14-14M70 64V40a2 2 0 0 1 2-2h112a2 2 0 0 1 2 2v24a2 2 0 0 1-2 2H72a2 2 0 0 1-2-2m106.14 98H79.86l13.27-84h69.74Z"/></svg>

<svg xmlns="http://www.w3.org/2000/svg" viewBox="0 0 256 256" fill="currentColor"><path d="M198,64V40a14,14,0,0,0-14-14H72A14,14,0,0,0,58,40V64A14,14,0,0,0,72,78h9L58.07,223.06a6,6,0,0,0,5,6.87,6,6,0,0,0,6.86-5L78,174H178l8,50.93a6,6,0,1,0,11.86-1.87L175,78h9A14,14,0,0,0,198,64ZM70,64V40a2,2,0,0,1,2-2H184a2,2,0,0,1,2,2V64a2,2,0,0,1-2,2H72A2,2,0,0,1,70,64Zm106.14,98H79.86L93.13,78h69.74Z"/></svg>
